X: 4149
T: HIELAN' TONAL'
R: Strathspey.
%R: strathspey
B: James Kerr "Merry Melodies" v.4 p.18 #149
Z: 2016 John Chambers <jc:trillian.mit.edu>
M: C
L: 1/8
K: Dm
|:\
A>GF>E D2d2 | c<A A>d c<A A>d |\
A>GF>E D2d2 | f>d (3ed^c d3 A ::\
d>ef>e d<A A>B | c<e e>d c<e e>f |\
d>ef>e d2 A>B | A>d (3ed^c d3 A :|

%%sep 1 1 500
%%sep 1 1 500

